X:92
T: ICH WEISS NICHT WAS SOLL ES BEDEUTEN
N: B0120
O: Europa, Mitteleuropa, Deutschland
R: Ballade, Romanze
M: 6/8
L: 1/16
K: C
G2 | G3AG2c2B2A2 | G6F4
F2 | E4E2D2C2D2 | E8z2
G2 | G3AG2c2B2A2 | G6F4
F2 | E4E2G2F2D2 | C8z2
E2 | D3ED2G2D2G2 | B6A4
A2 | G4G2^F2G2A2 | G8-G2
G2 | G3AG2c2B2A2 | G4e2d4
d2 | c4c2B2A2B2 | c8z2

@@@ Tune index: 1895
